public/logos/LN.svg

<?xml version="1.0" encoding="UTF-8"?>
<svg xmlns="http://www.w3.org/2000/svg" xmlns:xlink="http://www.w3.org/1999/xlink" width="176pt" height="36.26pt" viewBox="0 0 176 36.26" version="1.1">
<defs>
<clipPath id="clip1">
  <path d="M 0 0 L 37 0 L 37 36.261719 L 0 36.261719 Z M 0 0 "/>
</clipPath>
</defs>
<g id="surface1">
<g clip-path="url(#clip1)" clip-rule="nonzero">
<path style=" stroke:none;fill-rule:nonzero;fill:rgb(73.826599%,62.165833%,29.518127%);fill-opacity:1;" d="M 18.132812 1.109375 C 8.746094 1.109375 1.109375 8.742188 1.109375 18.128906 C 1.109375 27.515625 8.746094 35.148438 18.132812 35.148438 C 27.515625 35.148438 35.152344 27.515625 35.152344 18.128906 C 35.152344 8.742188 27.515625 1.109375 18.132812 1.109375 Z M 18.132812 36.261719 C 8.132812 36.261719 0 28.125 0 18.128906 C 0 8.132812 8.132812 -0.00390625 18.132812 -0.00390625 C 28.128906 -0.00390625 36.261719 8.132812 36.261719 18.128906 C 36.261719 28.125 28.128906 36.261719 18.132812 36.261719 "/>
</g>
<path style=" stroke:none;fill-rule:nonzero;fill:rgb(32.876587%,15.093994%,15.036011%);fill-opacity:1;" d="M 25.347656 21.738281 L 9.378906 21.738281 L 9.378906 20.0625 L 3.78125 22.636719 L 9.378906 25.214844 L 9.378906 23.539062 L 25.347656 23.539062 L 25.347656 21.738281 "/>
<path style=" stroke:none;fill-rule:nonzero;fill:rgb(32.876587%,15.093994%,15.036011%);fill-opacity:1;" d="M 30.921875 21.730469 L 27.339844 18.683594 L 32.007812 18.683594 L 32.007812 16.878906 L 25.214844 16.878906 L 17.976562 10.589844 L 9.378906 15.277344 L 9.378906 12.441406 L 4.253906 17.332031 L 9.378906 17.332031 L 17.652344 12.820312 L 22.429688 16.878906 L 17.425781 16.878906 L 17.425781 15.203125 L 11.832031 17.78125 L 17.425781 20.359375 L 17.425781 18.683594 L 24.550781 18.683594 L 29.742188 23.09375 L 29.742188 23.101562 L 32.597656 23.101562 L 32.597656 21.730469 L 30.921875 21.730469 "/>
<path style=" stroke:none;fill-rule:nonzero;fill:rgb(11.839294%,10.966492%,10.192871%);fill-opacity:1;" d="M 3.929688 17.226562 C 3.140625 17.226562 8.324219 8.507812 18.964844 6.566406 C 11.515625 8.414062 6.058594 14.730469 3.929688 17.226562 "/>
<path style=" stroke:none;fill-rule:nonzero;fill:rgb(11.839294%,10.966492%,10.192871%);fill-opacity:1;" d="M 6.582031 16.046875 C 6.582031 16.046875 7.980469 15.230469 9.066406 16.015625 C 7.984375 16.664062 6.582031 16.046875 6.582031 16.046875 "/>
<path style=" stroke:none;fill-rule:nonzero;fill:rgb(9.631348%,8.453369%,7.525635%);fill-opacity:1;" d="M 45.476562 15.484375 L 47.726562 15.484375 L 47.726562 23.523438 L 52.789062 23.523438 L 52.789062 24.976562 L 45.476562 24.976562 L 45.476562 15.484375 "/>
<path style=" stroke:none;fill-rule:nonzero;fill:rgb(9.631348%,8.453369%,7.525635%);fill-opacity:1;" d="M 56.738281 15.484375 L 56.738281 24.976562 L 54.488281 24.976562 L 54.488281 15.484375 L 56.738281 15.484375 "/>
<path style=" stroke:none;fill-rule:nonzero;fill:rgb(9.631348%,8.453369%,7.525635%);fill-opacity:1;" d="M 61.546875 23.722656 C 61.839844 23.75 62.222656 23.765625 62.734375 23.765625 C 64.179688 23.765625 65.457031 23.34375 65.457031 22.171875 C 65.457031 21.074219 64.214844 20.625 62.660156 20.625 L 61.546875 20.625 Z M 61.546875 19.355469 L 62.699219 19.355469 C 64.25 19.355469 65.128906 18.792969 65.128906 17.992188 C 65.128906 17.105469 64.25 16.695312 62.824219 16.695312 C 62.167969 16.695312 61.785156 16.722656 61.546875 16.765625 Z M 59.316406 15.613281 C 60.027344 15.5 61.328125 15.414062 62.589844 15.414062 C 64.25 15.414062 65.273438 15.570312 66.117188 16.019531 C 66.882812 16.371094 67.394531 16.992188 67.394531 17.792969 C 67.394531 18.667969 66.683594 19.46875 65.347656 19.851562 L 65.347656 19.878906 C 66.644531 20.132812 67.832031 20.921875 67.832031 22.230469 C 67.832031 23.074219 67.359375 23.734375 66.644531 24.1875 C 65.769531 24.777344 64.324219 25.074219 62.074219 25.074219 C 60.832031 25.074219 59.882812 25.003906 59.316406 24.945312 L 59.316406 15.613281 "/>
<path style=" stroke:none;fill-rule:nonzero;fill:rgb(9.631348%,8.453369%,7.525635%);fill-opacity:1;" d="M 72.183594 24.976562 L 72.183594 21.019531 L 68.292969 15.484375 L 70.851562 15.484375 L 72.332031 17.921875 C 72.753906 18.625 73.0625 19.160156 73.390625 19.808594 L 73.429688 19.808594 C 73.738281 19.203125 74.085938 18.613281 74.507812 17.921875 L 75.988281 15.484375 L 78.527344 15.484375 L 74.433594 20.976562 L 74.433594 24.976562 L 72.183594 24.976562 "/>
<path style=" stroke:none;fill-rule:nonzero;fill:rgb(9.631348%,8.453369%,7.525635%);fill-opacity:1;" d="M 84.304688 20.976562 L 83.335938 18.640625 C 83.097656 18.0625 82.898438 17.414062 82.714844 16.867188 L 82.679688 16.867188 C 82.496094 17.414062 82.3125 18.078125 82.09375 18.640625 L 81.144531 20.976562 Z M 80.777344 22.285156 L 79.71875 24.976562 L 77.394531 24.976562 L 81.34375 15.484375 L 84.214844 15.484375 L 88.214844 24.976562 L 85.804688 24.976562 L 84.6875 22.285156 L 80.777344 22.285156 "/>
<path style=" stroke:none;fill-rule:nonzero;fill:rgb(9.631348%,8.453369%,7.525635%);fill-opacity:1;" d="M 89.9375 24.976562 L 89.9375 15.484375 L 92.496094 15.484375 L 95.675781 19.554688 C 96.496094 20.609375 97.210938 21.707031 97.777344 22.738281 L 97.8125 22.738281 C 97.667969 21.46875 97.613281 20.246094 97.613281 18.792969 L 97.613281 15.484375 L 99.695312 15.484375 L 99.695312 24.976562 L 97.375 24.976562 L 94.160156 20.808594 C 93.371094 19.765625 92.550781 18.597656 91.945312 17.527344 L 91.890625 17.542969 C 91.984375 18.765625 92 20.019531 92 21.582031 L 92 24.976562 L 89.9375 24.976562 "/>
<path style=" stroke:none;fill-rule:nonzero;fill:rgb(9.631348%,8.453369%,7.525635%);fill-opacity:1;" d="M 112.074219 20.976562 L 111.105469 18.640625 C 110.867188 18.0625 110.664062 17.414062 110.484375 16.867188 L 110.445312 16.867188 C 110.261719 17.414062 110.082031 18.078125 109.859375 18.640625 L 108.910156 20.976562 Z M 108.546875 22.285156 L 107.484375 24.976562 L 105.164062 24.976562 L 109.113281 15.484375 L 111.980469 15.484375 L 115.984375 24.976562 L 113.570312 24.976562 L 112.457031 22.285156 L 108.546875 22.285156 "/>
<path style=" stroke:none;fill-rule:nonzero;fill:rgb(9.631348%,8.453369%,7.525635%);fill-opacity:1;" d="M 119.953125 15.484375 L 119.953125 24.976562 L 117.703125 24.976562 L 117.703125 15.484375 L 119.953125 15.484375 "/>
<path style=" stroke:none;fill-rule:nonzero;fill:rgb(9.631348%,8.453369%,7.525635%);fill-opacity:1;" d="M 124.761719 19.808594 L 126.09375 19.808594 C 127.609375 19.808594 128.5625 19.1875 128.5625 18.246094 C 128.5625 17.203125 127.609375 16.722656 126.148438 16.722656 C 125.4375 16.722656 124.980469 16.765625 124.761719 16.808594 Z M 122.53125 15.613281 C 123.371094 15.5 124.632812 15.414062 125.929688 15.414062 C 127.703125 15.414062 128.910156 15.640625 129.730469 16.175781 C 130.40625 16.613281 130.792969 17.273438 130.792969 18.078125 C 130.792969 19.300781 129.714844 20.132812 128.5625 20.457031 L 128.5625 20.496094 C 129.4375 20.75 129.96875 21.414062 130.28125 22.328125 C 130.664062 23.511719 130.992188 24.609375 131.25 24.976562 L 128.925781 24.976562 C 128.746094 24.695312 128.453125 23.917969 128.105469 22.738281 C 127.757812 21.496094 127.171875 21.101562 125.894531 21.074219 L 124.761719 21.074219 L 124.761719 24.976562 L 122.53125 24.976562 L 122.53125 15.613281 "/>
<path style=" stroke:none;fill-rule:nonzero;fill:rgb(9.631348%,8.453369%,7.525635%);fill-opacity:1;" d="M 132.933594 15.484375 L 135.179688 15.484375 L 135.179688 23.523438 L 140.242188 23.523438 L 140.242188 24.976562 L 132.933594 24.976562 L 132.933594 15.484375 "/>
<path style=" stroke:none;fill-rule:nonzero;fill:rgb(9.631348%,8.453369%,7.525635%);fill-opacity:1;" d="M 144.191406 15.484375 L 144.191406 24.976562 L 141.945312 24.976562 L 141.945312 15.484375 L 144.191406 15.484375 "/>
<path style=" stroke:none;fill-rule:nonzero;fill:rgb(9.631348%,8.453369%,7.525635%);fill-opacity:1;" d="M 146.769531 24.976562 L 146.769531 15.484375 L 149.328125 15.484375 L 152.507812 19.554688 C 153.332031 20.609375 154.046875 21.707031 154.613281 22.738281 L 154.648438 22.738281 C 154.503906 21.46875 154.445312 20.246094 154.445312 18.792969 L 154.445312 15.484375 L 156.53125 15.484375 L 156.53125 24.976562 L 154.210938 24.976562 L 150.992188 20.808594 C 150.207031 19.765625 149.382812 18.597656 148.78125 17.527344 L 148.726562 17.542969 C 148.816406 18.765625 148.835938 20.019531 148.835938 21.582031 L 148.835938 24.976562 L 146.769531 24.976562 "/>
<path style=" stroke:none;fill-rule:nonzero;fill:rgb(9.631348%,8.453369%,7.525635%);fill-opacity:1;" d="M 166.019531 20.765625 L 161.375 20.765625 L 161.375 23.554688 L 166.566406 23.554688 L 166.566406 24.976562 L 159.128906 24.976562 L 159.128906 15.484375 L 166.292969 15.484375 L 166.292969 16.90625 L 161.375 16.90625 L 161.375 19.355469 L 166.019531 19.355469 L 166.019531 20.765625 "/>
<path style=" stroke:none;fill-rule:nonzero;fill:rgb(9.631348%,8.453369%,7.525635%);fill-opacity:1;" d="M 168.488281 23.089844 C 169.21875 23.414062 170.316406 23.695312 171.46875 23.695312 C 172.910156 23.695312 173.714844 23.171875 173.714844 22.398438 C 173.714844 21.679688 173.09375 21.257812 171.523438 20.820312 C 169.492188 20.257812 168.195312 19.429688 168.195312 18.0625 C 168.195312 16.511719 169.878906 15.332031 172.546875 15.332031 C 173.878906 15.332031 174.867188 15.554688 175.507812 15.808594 L 174.957031 17.203125 C 174.519531 17.019531 173.660156 16.753906 172.507812 16.753906 C 171.082031 16.753906 170.460938 17.34375 170.460938 17.894531 C 170.460938 18.625 171.175781 18.964844 172.820312 19.457031 C 174.957031 20.074219 176 20.90625 176 22.273438 C 176 23.792969 174.5 25.117188 171.320312 25.117188 C 170.023438 25.117188 168.671875 24.835938 167.992188 24.523438 L 168.488281 23.089844 "/>
</g>
</svg>

<svg xmlns="http://www.w3.org/2000/svg" width="176pt" height="48.347" viewBox="0 0 176 36.26"><defs><clipPath id="a"><path d="M0 0h37v36.262H0Zm0 0"/></clipPath></defs><g clip-path="url(#a)"><path d="M18.133 1.11c-9.387 0-17.024 7.632-17.024 17.019s7.637 17.02 17.024 17.02c9.383 0 17.02-7.633 17.02-17.02s-7.637-17.02-17.02-17.02m0 35.152C8.133 36.262 0 28.125 0 18.129S8.133-.004 18.133-.004c9.996 0 18.129 8.137 18.129 18.133s-8.133 18.133-18.13 18.133" style="stroke:none;fill-rule:nonzero;fill:#bc9f4b;fill-opacity:1"/></g><path d="M25.348 21.738H9.378v-1.675l-5.597 2.574 5.598 2.578v-1.676h15.969z" style="stroke:none;fill-rule:nonzero;fill:#542626;fill-opacity:1"/><path d="m30.922 21.73-3.582-3.046h4.668v-1.805h-6.793l-7.238-6.29-8.598 4.688v-2.836l-5.125 4.891h5.125l8.273-4.512 4.778 4.059h-5.004v-1.676l-5.594 2.578 5.594 2.578v-1.675h7.125l5.191 4.41v.008h2.856V21.73z" style="stroke:none;fill-rule:nonzero;fill:#542626;fill-opacity:1"/><path d="M3.93 17.227c-.79 0 4.394-8.72 15.035-10.66-7.45 1.847-12.906 8.163-15.035 10.66M6.582 16.047s1.398-.817 2.484-.031c-1.082.648-2.484.03-2.484.03" style="stroke:none;fill-rule:nonzero;fill:#1e1c1a;fill-opacity:1"/><path d="M45.477 15.484h2.25v8.04h5.062v1.453h-7.312zM56.738 15.484v9.493h-2.25v-9.493zM61.547 23.723c.293.027.676.043 1.187.043 1.446 0 2.723-.422 2.723-1.594 0-1.098-1.242-1.547-2.797-1.547h-1.113Zm0-4.368h1.152c1.551 0 2.43-.562 2.43-1.363 0-.887-.879-1.297-2.305-1.297-.656 0-1.039.028-1.277.07Zm-2.23-3.742c.71-.113 2.011-.199 3.273-.199 1.66 0 2.683.156 3.527.606.766.351 1.278.972 1.278 1.773 0 .875-.711 1.676-2.047 2.059v.027c1.297.254 2.484 1.043 2.484 2.351 0 .844-.473 1.504-1.187 1.957-.875.59-2.32.887-4.57.887-1.243 0-2.192-.07-2.759-.129zM72.184 24.977V21.02l-3.891-5.536h2.559l1.48 2.438c.422.703.73 1.238 1.059 1.887h.039c.308-.606.656-1.196 1.078-1.887l1.48-2.438h2.54l-4.094 5.493v4zM84.305 20.977l-.97-2.336c-.237-.578-.437-1.227-.62-1.774h-.035c-.184.547-.368 1.211-.586 1.774l-.95 2.336Zm-3.528 1.308-1.058 2.692h-2.324l3.949-9.493h2.87l4 9.493h-2.41l-1.117-2.692zM89.938 24.977v-9.493h2.558l3.18 4.07a24.4 24.4 0 0 1 2.101 3.184h.035c-.144-1.27-.199-2.492-.199-3.945v-3.309h2.082v9.493h-2.32l-3.215-4.168c-.789-1.043-1.61-2.211-2.215-3.282l-.054.016c.093 1.223.109 2.477.109 4.039v3.395zM112.074 20.977l-.969-2.336c-.238-.578-.44-1.227-.62-1.774h-.04c-.183.547-.363 1.211-.586 1.774l-.949 2.336Zm-3.527 1.308-1.063 2.692h-2.32l3.95-9.493h2.866l4.004 9.493h-2.414l-1.113-2.692zM119.953 15.484v9.493h-2.25v-9.493zM124.762 19.809h1.332c1.515 0 2.469-.622 2.469-1.563 0-1.043-.954-1.523-2.415-1.523-.71 0-1.168.043-1.386.086Zm-2.23-4.196c.84-.113 2.1-.199 3.398-.199 1.773 0 2.98.227 3.8.762.676.437 1.063 1.097 1.063 1.902 0 1.223-1.078 2.055-2.23 2.379v.04c.875.253 1.406.917 1.718 1.831.383 1.184.711 2.281.969 2.649h-2.324c-.18-.282-.473-1.059-.82-2.239-.348-1.242-.934-1.636-2.211-1.664h-1.133v3.903h-2.23zM132.934 15.484h2.246v8.04h5.062v1.453h-7.308zM144.191 15.484v9.493h-2.246v-9.493zM146.77 24.977v-9.493h2.558l3.18 4.07a24 24 0 0 1 2.105 3.184h.035a34 34 0 0 1-.203-3.945v-3.309h2.086v9.493h-2.32l-3.219-4.168c-.785-1.043-1.61-2.211-2.21-3.282l-.055.016c.09 1.223.109 2.477.109 4.039v3.395zM166.02 20.766h-4.645v2.789h5.191v1.422h-7.437v-9.493h7.164v1.422h-4.918v2.45h4.645zM168.488 23.09c.73.324 1.828.605 2.98.605 1.442 0 2.247-.523 2.247-1.297 0-.718-.621-1.14-2.192-1.578-2.03-.562-3.328-1.39-3.328-2.758 0-1.55 1.684-2.73 4.352-2.73 1.332 0 2.32.223 2.96.477l-.55 1.394c-.437-.183-1.297-.45-2.45-.45-1.425 0-2.046.59-2.046 1.142 0 .73.715 1.07 2.36 1.562 2.136.617 3.179 1.45 3.179 2.816 0 1.52-1.5 2.844-4.68 2.844-1.297 0-2.648-.281-3.328-.594z" style="stroke:none;fill-rule:nonzero;fill:#191613;fill-opacity:1"/></svg>
